img/icons/leaf.svg

<svg width="30" height="30" viewBox="0 0 30 30" fill="none" xmlns="http://www.w3.org/2000/svg">
<path d="M9 17.7469C10 16.4969 11 15.4969 12 14.7469C13.875 13.1219 15.5 12.4969 15.5 12.4969C15.5 12.4969 14.625 13.8719 13.25 15.8719C13 16.3719 12.625 16.8719 12.25 17.4969C11.875 17.9969 11.625 18.6219 11.25 19.2469C10.875 19.8719 10.625 20.4969 10.25 21.1219C10 21.7469 9.5 22.4969 9.25 23.1219C9 23.7469 8.625 24.4969 8.375 25.1219C8.25 25.3719 8.125 25.7469 8 25.9969C12.125 28.3719 17.625 27.8719 21 24.2469C27.25 17.4969 21.75 14.6219 27.5 2.74693C27.5 2.74693 14.75 0.121927 5.625 9.12193C1.5 13.2469 1.5 19.8719 5.625 24.1219C5.875 23.3719 6.125 22.6219 6.5 21.8719C7.125 20.3719 8 18.8719 9 17.7469Z" fill="white"/>
</svg>

<svg width="30" height="30" viewBox="0 0 30 30" fill="none" xmlns="http://www.w3.org/2000/svg"><path d="M9 17.747c1-1.25 2-2.25 3-3 1.875-1.625 3.5-2.25 3.5-2.25s-.875 1.375-2.25 3.375c-.25.5-.625 1-1 1.625-.375.5-.625 1.125-1 1.75s-.625 1.25-1 1.875c-.25.625-.75 1.375-1 2s-.625 1.375-.875 2c-.125.25-.25.625-.375.875 4.125 2.375 9.625 1.875 13-1.75 6.25-6.75.75-9.625 6.5-21.5 0 0-12.75-2.625-21.875 6.375-4.125 4.125-4.125 10.75 0 15 .25-.75.5-1.5.875-2.25.625-1.5 1.5-3 2.5-4.125Z" fill="#fff"/></svg>
